public/github.svg

<svg width="30" height="24" viewBox="0 0 30 24" fill="none" xmlns="http://www.w3.org/2000/svg">
<g clip-path="url(#clip0_533_6)">
<path d="M26.4257 -0.0236458C25.6291 -0.0354298 23.7786 0.235002 20.6891 2.30282C19.0052 1.88198 17.2136 1.67431 15.4189 1.67431C13.4442 1.67431 11.4487 1.92506 9.58774 2.43556C5.15198 -0.590526 3.19409 0.0296102 3.19409 0.0296102C1.9159 3.226 2.70576 5.59252 2.94583 6.18026C1.4435 7.80165 0.526367 9.87211 0.526367 12.4097C0.526367 14.3254 0.744407 16.0437 1.27711 17.5373C1.30666 17.6526 1.29708 17.6269 1.34686 17.7256C1.46422 18.0348 1.5947 18.335 1.74137 18.6248C1.79162 18.7291 1.83737 18.8063 1.83737 18.8063C3.33485 21.5977 6.28687 23.4009 11.5392 23.967L19.4831 23.976C25.0845 23.4206 27.7724 21.612 29.011 18.8018L29.0897 18.6188C29.2071 18.335 29.3094 18.0396 29.5892 17.0453C29.869 16.0511 29.9942 14.3292 29.9942 12.4089C29.9942 9.65479 28.9598 7.45106 27.28 5.77449C27.5736 4.82697 27.9657 2.7227 26.8885 0.0288422C26.8885 0.0288422 26.7375 -0.0190378 26.4258 -0.0236698L26.4257 -0.0236458ZM20.1656 10.0832C21.459 10.0804 22.5669 10.3025 23.3988 11.1752V11.1759C24.4396 12.2689 25.0488 13.5885 25.0488 15.0106C25.0488 21.6504 20.7784 21.831 15.5112 21.831C10.243 21.831 5.97355 20.9109 5.97355 15.0106C5.97355 13.5979 6.57377 12.2862 7.60178 11.1977C9.31661 9.38349 12.2185 10.3442 15.5112 10.3442C17.2013 10.3439 18.7887 10.0862 20.1656 10.0832L20.1656 10.0832ZM10.3542 12.0384C9.25822 12.0384 8.36971 13.5202 8.36971 15.3489C8.36971 17.1778 9.25817 18.6601 10.3542 18.6601C11.4502 18.6601 12.3387 17.1778 12.3387 15.3489C12.3387 13.5205 11.4502 12.0397 10.3542 12.0384ZM21.0018 12.0384C19.9058 12.0384 19.0173 13.5202 19.0173 15.3489C19.0173 17.1778 19.9057 18.6601 21.0018 18.6601C22.0978 18.6601 22.9863 17.1778 22.9863 15.3489C22.9863 13.5205 22.0978 12.0397 21.0018 12.0384Z" fill="#777777"/>
</g>
<defs>
<clipPath id="clip0_533_6">
<rect width="29.47" height="24" fill="white" transform="translate(0.530273)"/>
</clipPath>
</defs>
</svg>

<svg xmlns="http://www.w3.org/2000/svg" width="30" height="24" fill="none"><g clip-path="url(#a)"><path fill="#777" d="M26.43-.02c-.8-.02-2.65.26-5.74 2.32a22.23 22.23 0 0 0-11.1.13C5.15-.58 3.19.04 3.19.04c-1.27 3.2-.48 5.56-.24 6.15a8.91 8.91 0 0 0-2.42 6.23c0 1.92.21 3.63.75 5.13.03.11.02.09.07.19a9.29 9.29 0 0 0 .49 1.08c1.5 2.79 4.45 4.6 9.7 5.16h7.94c5.6-.55 8.3-2.36 9.53-5.17l.08-.18c.12-.29.22-.58.5-1.57.28-1 .4-2.72.4-4.64a9.08 9.08 0 0 0-2.71-6.64 8.6 8.6 0 0 0-.4-5.74s-.14-.05-.45-.05Zm-6.26 10.1c1.29 0 2.4.22 3.23 1.1A5.55 5.55 0 0 1 25.05 15c0 6.64-4.27 6.82-9.54 6.82s-9.54-.92-9.54-6.82c0-1.41.6-2.72 1.63-3.81 1.72-1.82 4.62-.86 7.91-.86 1.7 0 3.28-.25 4.66-.26Zm-9.82 1.96c-1.1 0-1.98 1.48-1.98 3.3 0 1.84.89 3.32 1.98 3.32 1.1 0 1.99-1.48 1.99-3.31s-.89-3.31-1.99-3.31Zm10.65 0c-1.1 0-1.98 1.48-1.98 3.3 0 1.84.89 3.32 1.98 3.32 1.1 0 1.99-1.48 1.99-3.31s-.9-3.31-1.99-3.31Z"/></g><defs><clipPath id="a"><path fill="#fff" d="M.53 0H30v24H.53z"/></clipPath></defs></svg>
